apps/scalable/4chan.svg

<svg xmlns="http://www.w3.org/2000/svg" style="isolation:isolate" width="256" height="256"><defs><filter id="a" width="270.648" height="254.338" x="-7.32" y="2.95" filterUnits="userSpaceOnUse"><feGaussianBlur xmlns="http://www.w3.org/2000/svg" in="SourceGraphic" stdDeviation="4.294"/><feOffset xmlns="http://www.w3.org/2000/svg" dy="4" result="pf_100_offsetBlur"/><feFlood xmlns="http://www.w3.org/2000/svg" flood-opacity=".4"/><feComposite xmlns="http://www.w3.org/2000/svg" in2="pf_100_offsetBlur" operator="in" result="pf_100_dropShadow"/><feBlend xmlns="http://www.w3.org/2000/svg" in="SourceGraphic" in2="pf_100_dropShadow"/></filter></defs><g filter="url(#a)"><linearGradient id="b" x1=".533" x2=".533" y1="-.071" y2="1.071" gradientTransform="matrix(244.648 0 0 228.338 5.676 11.947)" gradientUnits="userSpaceOnUse"><stop offset="0%" stop-color="#2b898f"/><stop offset="100%" stop-color="#5bdbc1"/></linearGradient><path fill="url(#b)" d="M165.685 11.947c74.055 0 84.639 10.557 84.639 84.544v59.251c0 73.986-10.584 84.543-84.639 84.543h-75.37c-74.055 0-84.639-10.557-84.639-84.543V96.491c0-73.987 10.584-84.544 84.639-84.544h75.37z"/></g><g opacity=".4"><linearGradient id="c" x1=".517" x2=".517" y2="1"><stop offset="0%" stop-color="#fff"/><stop offset="12.5%" stop-opacity=".098" stop-color="#fff"/><stop offset="92.5%" stop-opacity=".098"/><stop offset="100%" stop-opacity=".498"/></linearGradient><path fill="none" stroke="url(#c)" stroke-linecap="round" stroke-linejoin="round" stroke-width="4.077" d="M165.685 11.947c74.055 0 84.639 10.557 84.639 84.544v59.251c0 73.986-10.584 84.543-84.639 84.543h-75.37c-74.055 0-84.639-10.557-84.639-84.543V96.491c0-73.987 10.584-84.544 84.639-84.544h75.37z" vector-effect="non-scaling-stroke"/></g><path fill="#F9F9F9" d="M155 56c-7.401 0-15 10.235-15 30 0 18 6 30 6 30s48-6 48-30c0-18-16.901-32.618-24-18-2.68-8.04-7.834-12-15-12zm-69 6c-18 0-32.618 16.901-18 24-8.04 2.68-12 7.834-12 15 0 7.401 10.235 15 30 15 18 0 30-6 30-6s-6-48-30-48zm24 78s-48 6-48 30c0 18 16.901 32.618 24 18 2.68 8.04 7.834 12 15 12 7.401 0 15-10.235 15-30 0-18-6-30-6-30zm60 0c-18 0-30 6-30 6s6 48 30 48c18 0 32.618-16.901 18-24 8.04-2.68 12-7.834 12-15 0-7.401-10.235-15-30-15z"/></svg>

<svg xmlns="http://www.w3.org/2000/svg" style="isolation:isolate" width="256" height="256" viewBox="0 0 256 256">
 <defs>
  <filter id="uCDcbVnBmP9MnR5xAMH6sikWV24UHJi3" width="270.648" height="254.338" x="-7.32" y="2.95" filterUnits="userSpaceOnUse">
   <feGaussianBlur xmlns="http://www.w3.org/2000/svg" in="SourceGraphic" stdDeviation="4.294"/>
   <feOffset xmlns="http://www.w3.org/2000/svg" dx="0" dy="4" result="pf_100_offsetBlur"/>
   <feFlood xmlns="http://www.w3.org/2000/svg" flood-opacity=".4"/>
   <feComposite xmlns="http://www.w3.org/2000/svg" in2="pf_100_offsetBlur" operator="in" result="pf_100_dropShadow"/>
   <feBlend xmlns="http://www.w3.org/2000/svg" in="SourceGraphic" in2="pf_100_dropShadow" mode="normal"/>
  </filter>
 </defs>
 <g filter="url(#uCDcbVnBmP9MnR5xAMH6sikWV24UHJi3)">
  <linearGradient id="_lgradient_4" x1=".533" x2=".533" y1="-.071" y2="1.071" gradientTransform="matrix(244.648,0,0,228.338,5.676,11.947)" gradientUnits="userSpaceOnUse">
   <stop offset="0%" style="stop-color:rgb(43,137,143)"/>
   <stop offset="100%" style="stop-color:rgb(91,219,193)"/>
  </linearGradient>
  <path fill="url(#_lgradient_4)" d="M 165.685 11.947 C 239.74 11.947 250.324 22.504 250.324 96.491 L 250.324 155.742 C 250.324 229.728 239.74 240.285 165.685 240.285 L 90.315 240.285 C 16.26 240.285 5.676 229.728 5.676 155.742 L 5.676 96.491 C 5.676 22.504 16.26 11.947 90.315 11.947 L 165.685 11.947 Z"/>
 </g>
 <g opacity=".4">
  <linearGradient id="_lgradient_5" x1=".517" x2=".517" y1="0" y2="1">
   <stop offset="0%" style="stop-color:rgb(255,255,255)"/>
   <stop offset="12.5%" stop-opacity=".098" style="stop-color:rgb(255,255,255)"/>
   <stop offset="92.5%" stop-opacity=".098" style="stop-color:rgb(0,0,0)"/>
   <stop offset="100%" stop-opacity=".498" style="stop-color:rgb(0,0,0)"/>
  </linearGradient>
  <path fill="none" stroke="url(#_lgradient_5)" stroke-linecap="round" stroke-linejoin="round" stroke-width="4.077" d="M 165.685 11.947 C 239.74 11.947 250.324 22.504 250.324 96.491 L 250.324 155.742 C 250.324 229.728 239.74 240.285 165.685 240.285 L 90.315 240.285 C 16.26 240.285 5.676 229.728 5.676 155.742 L 5.676 96.491 C 5.676 22.504 16.26 11.947 90.315 11.947 L 165.685 11.947 Z" vector-effect="non-scaling-stroke"/>
 </g>
 <path fill="#F9F9F9" d="M 155 56 C 147.599 56 140 66.235 140 86 C 140 104 146 116 146 116 C 146 116 194 110 194 86 C 194 68 177.099 53.382 170 68 C 167.32 59.96 162.166 56 155 56 Z M 86 62 C 68 62 53.382 78.901 68 86 C 59.96 88.68 56 93.834 56 101 C 56 108.401 66.235 116 86 116 C 104 116 116 110 116 110 C 116 110 110 62 86 62 Z M 110 140 C 110 140 62 146 62 170 C 62 188 78.901 202.618 86 188 C 88.68 196.04 93.834 200 101 200 C 108.401 200 116 189.765 116 170 C 116 152 110 140 110 140 Z M 170 140 C 152 140 140 146 140 146 C 140 146 146 194 170 194 C 188 194 202.618 177.099 188 170 C 196.04 167.32 200 162.166 200 155 C 200 147.599 189.765 140 170 140 Z"/>
</svg>
